X:1
T:Gill Morrice
M:3/4
L:1/8
K:D
 A2| dB A3 F|A-A E2 z D| F E3 FA| B4 A2| dB A3 F| AA E2 z D| F E3 FA|\
 B4||
